public/images/kairos-blue-logo.svg

<svg xmlns="http://www.w3.org/2000/svg" fill="none" viewBox="0 0 158 22">
  <g fill="#1B42EA" clip-path="url(#a)">
    <path d="M115.781 6.35918c.468 0 .917.08406 1.356.25219.439.16813.819.43516 1.151.79614.331.36592.599.8258.799 1.37469.205.55383.308 1.2115.308 1.9829 0 1.439-.23 2.8384-.688 4.1983-.458 1.3598-1.083 2.5565-1.882 3.5949-.8 1.0385-1.726 1.8692-2.785 2.4972-1.058.633-2.199.9445-3.428.9445-.624 0-1.131-.1088-1.531-.3264-.4-.2175-.707-.4945-.916-.8258l-3.238 1.0929 2.886-17.06005c.157-.96427.093-1.70106-.19-2.2005-.282-.50438-.736-.77141-1.355-.81097l.029-.14835c1.009-.21757 1.946-.44504 2.799-.6824.853-.23735 1.76-.5835 2.711-1.03349h.088l-2.302 13.18816c.254-.6923.566-1.4341.932-2.2302.37-.7961.799-1.53786 1.297-2.21532.497-.6824 1.068-1.24612 1.721-1.70105.649-.45494 1.395-.6824 2.229-.6824l.009-.00495Zm-4.983 15.16612c.834 0 1.594-.2918 2.272-.8703.678-.5835 1.263-1.3253 1.751-2.2302.487-.9049.863-1.9038 1.136-2.9867.273-1.083.409-2.1263.409-3.1351 0-.7863-.063-1.439-.19-1.9533-.127-.51423-.292-.91972-.497-1.2263-.205-.30659-.439-.51922-.702-.6379-.264-.11868-.542-.17802-.829-.17802-.585 0-1.122.21758-1.619.65273-.498.43516-.941.96921-1.341 1.61209-.4.6428-.746 1.3104-1.049 2.0125-.302.7022-.551 1.3154-.741 1.8495l-.99 5.7361c.176.4351.454.7664.829 1.0038.381.2374.898.356 1.561.356v-.0049ZM123.277 22c-.854 0-1.439-.267-1.751-.7961-.312-.5341-.39-1.2214-.234-2.072l2.389-14.19191c.059-.33626.088-.66757.088-1.00382 0-.33626-.049-.65274-.146-.94449-.098-.29669-.268-.54888-.512-.75657-.244-.20769-.571-.33131-.976-.37087l.03-.14835c2.023-.37581 3.857-.94448 5.51-1.71589h.088l-3.238 18.7759c-.098.4549-.093.7615.014.9297.108.1681.288.2521.542.2521.409 0 .785-.1681 1.136-.5043.351-.3363.668-.7171.946-1.1522.283-.4352.512-.8555.687-1.2709.176-.4153.293-.6873.352-.8258l.146.0297c-.176.4154-.4.9494-.673 1.6121-.273.6626-.619 1.2955-1.034 1.9087-.419.6132-.902 1.1373-1.458 1.5824-.556.445-1.19.6675-1.911.6675l.005-.0049Zm22.596-5.7658c-.195.4945-.434 1.0681-.712 1.7307-.283.6627-.629 1.2907-1.034 1.8939-.404.6033-.887 1.1077-1.443 1.5231s-1.18.623-1.882.623c-.815 0-1.39-.2571-1.722-.7664-.331-.5143-.419-1.2115-.263-2.1016l.673-3.7532c-.892 2.0917-1.858 3.7136-2.887 4.8806-1.029 1.1621-2.131 1.7456-3.296 1.7456-1.048 0-1.79-.3462-2.214-1.0335-.424-.6873-.526-1.7357-.292-3.1351l1.37-7.98111c.097-.43515.088-.7813-.029-1.04832-.117-.26703-.371-.40054-.756-.40054-.351 0-.678.12857-.976.3857-.302.25714-.575.55384-.814.88515-.244.33622-.448.65772-.614.95932-.166.3066-.288.5192-.366.6379l-.146-.0297c.195-.4154.429-.9.697-1.46368.273-.56372.614-1.09283 1.019-1.59721.41-.50439.878-.92965 1.414-1.28569.537-.35603 1.161-.53405 1.883-.53405.814 0 1.389.25219 1.721.75163.331.50438.419 1.20656.263 2.11643l-1.458 8.36687c-.156.8851-.117 1.5329.117 1.9384.234.4055.605.6082 1.107.6082.332 0 .688-.1632 1.063-.4896.38-.3263.766-.7615 1.166-1.3153.399-.5538.785-1.1967 1.165-1.9384.38-.7418.731-1.5329 1.063-2.3785l1.282-7.33336h3.15L142.05 18.7611c-.097.4945-.083.8159.044.9741.127.1583.307.2374.541.2374.39 0 .746-.1632 1.078-.4896.331-.3263.629-.7022.902-1.1225.273-.4252.502-.8406.683-1.256.18-.4154.317-.7121.395-.8851l.175.0296.005-.0148Zm8.25-9.87502c1.127 0 2.009.28187 2.638.84064.629.56373.946 1.31535.946 2.25984 0 1.00384-.268 1.86914-.8 2.58624-.536.7219-1.214 1.3203-2.043 1.8049-.824.4846-1.736.8604-2.726 1.1373-.989.2769-1.945.4846-2.857.6181.098.5538.258 1.0731.483 1.5675.224.4945.507.9198.843 1.2857.342.366.746.6528 1.224.8555.478.2077 1.015.3115 1.619.3115.951 0 1.819-.3066 2.594-.9148.776-.6082 1.38-1.4686 1.809-2.5713l.147.0593c-.507 1.795-1.273 3.2093-2.302 4.2427-1.029 1.0335-2.301 1.5528-3.818 1.5528-.775 0-1.477-.1434-2.097-.4303-.624-.2868-1.141-.6824-1.56-1.1966-.419-.5143-.741-1.1225-.961-1.8346-.224-.7071-.336-1.4884-.336-2.334 0-1.1818.17-2.3637.512-3.5455.341-1.1819.819-2.2351 1.443-3.16477.624-.92471 1.375-1.68128 2.258-2.25984.882-.57855 1.882-.87031 2.989-.87031h-.005Zm-4.983 7.63002c0 .178 0 .356.014.5341.01.178.025.356.044.534.795-.1187 1.541-.3016 2.229-.5489.692-.2472 1.292-.5785 1.809-.989.517-.4153.921-.8999 1.224-1.4637.302-.5637.453-1.2065.453-1.9384 0-.39556-.049-.76643-.146-1.12247-.098-.35603-.239-.66262-.424-.92964-.186-.26703-.415-.47472-.688-.62307-.273-.14834-.585-.22252-.931-.22252-.41 0-.82.13846-1.239.41538-.419.27691-.8.69229-1.151 1.24117-.351.55384-.639 1.25105-.858 2.10165-.224.8455-.336 1.8543-.336 3.0164v-.005ZM15.0773 5.34052h-4.252L5.86124 12.0607 3.35973 15.626V5.68667H0V21.5648h3.35973v-.0098l.01463.0049 3.06716-4.6334 4.37398 4.4653h4.7982l-7.12416-7.2246 6.58776-8.82668Zm26.4484.21759H38.166V21.5648h3.3597V5.55811Zm-11.7322 1.1126c-1.3751-1.12744-3.1793-1.76534-5.2615-1.76534-4.7787 0-8.1091 3.40706-8.1091 8.34703 0 4.94 3.3304 8.3174 8.1091 8.3174 2.0822 0 3.8864-.633 5.2615-1.7555v1.444h3.3597V5.24657h-3.3597v1.42414ZM24.532 18.6276c-2.8038 0-4.6568-2.1264-4.6568-5.4098 0-3.28343 1.8481-5.40975 4.6568-5.40975 2.8088 0 4.6861 2.09665 4.6861 5.40975s-1.8481 5.4098-4.6861 5.4098ZM65.7508 4.90537c-4.7787 0-8.1092 3.40706-8.1092 8.34703 0 4.94 3.3305 8.3174 8.1092 8.3174s8.1384-3.3774 8.1384-8.3174c0-4.93997-3.3304-8.34703-8.1384-8.34703Zm0 13.72223c-2.8038 0-4.6568-2.1264-4.6568-5.4098 0-3.28343 1.8481-5.40975 4.6568-5.40975 2.8087 0 4.6861 2.09665 4.6861 5.40975s-1.8481 5.4098-4.6861 5.4098ZM50.2298 6.61632V5.5581h-3.3597v16.0067h3.3597v-8.6239c.2292-2.9175 1.9457-4.73232 4.4569-4.73232.4486 0 .8778.0544 1.2727.16813V5.38997c-.4096-.05934-.8338-.08901-1.2727-.08901-1.7115 0-3.228.46977-4.4569 1.31536ZM85.7881 12.125l-3.116-.5637c-1.7554-.3116-2.56-.8456-2.56-2.00274 0-1.31536 1.1703-2.09666 3.0233-2.09666 1.9407 0 3.3305.90493 3.3597 2.53181h3.3305c-.0293-3.18948-2.838-5.06361-6.6902-5.06361-3.5743 0-6.383 1.87413-6.383 4.75208 0 2.27962 1.2044 3.90652 4.2862 4.44052l3.1744.5637c1.7896.2819 2.404.9396 2.404 2.156 0 1.4044-1.2337 2.1906-3.2963 2.1906-2.0627 0-3.5743-.9692-3.6084-2.6257h-3.3598c.0634 3.1252 2.8673 5.1575 7.0267 5.1575 3.6669 0 6.6902-1.7208 6.6902-5.0339 0-2.4082-1.3556-3.8768-4.2862-4.4059h.0049Zm12.3418 2.6702c.8079 0 1.4628-.6641 1.4628-1.4834s-.6549-1.4835-1.4628-1.4835c-.808 0-1.4629.6642-1.4629 1.4835s.6549 1.4834 1.4629 1.4834Z"/>
  </g>
  <defs>
    <clipPath id="a">
      <path fill="#fff" d="M0 0h158v22H0z"/>
    </clipPath>
  </defs>
</svg>

<svg width="158" height="22" viewBox="0 0 158 22" fill="none" xmlns="http://www.w3.org/2000/svg">
<g clip-path="url(#clip0_33_2017)">
<path d="M115.781 6.35918C116.249 6.35918 116.698 6.44324 117.137 6.61137C117.576 6.7795 117.956 7.04653 118.288 7.40751C118.619 7.77343 118.887 8.23331 119.087 8.7822C119.292 9.33603 119.395 9.9937 119.395 10.7651C119.395 12.2041 119.165 13.6035 118.707 14.9634C118.249 16.3232 117.624 17.5199 116.825 18.5583C116.025 19.5968 115.099 20.4275 114.04 21.0555C112.982 21.6885 111.841 22 110.612 22C109.988 22 109.481 21.8912 109.081 21.6736C108.681 21.4561 108.374 21.1791 108.165 20.8478L104.927 21.9407L107.813 4.88065C107.97 3.91638 107.906 3.17959 107.623 2.68015C107.341 2.17577 106.887 1.90874 106.268 1.86918L106.297 1.72083C107.306 1.50326 108.243 1.27579 109.096 1.03843C109.949 0.801078 110.856 0.454933 111.807 0.00494385H111.895L109.593 13.1931C109.847 12.5008 110.159 11.759 110.525 10.9629C110.895 10.1668 111.324 9.42504 111.822 8.74758C112.319 8.06518 112.89 7.50146 113.543 7.04653C114.192 6.59159 114.938 6.36413 115.772 6.36413L115.781 6.35918ZM110.798 21.5253C111.632 21.5253 112.392 21.2335 113.07 20.655C113.748 20.0715 114.333 19.3297 114.821 18.4248C115.308 17.5199 115.684 16.521 115.957 15.4381C116.23 14.3551 116.366 13.3118 116.366 12.303C116.366 11.5167 116.303 10.864 116.176 10.3497C116.049 9.83547 115.884 9.42998 115.679 9.1234C115.474 8.81681 115.24 8.60418 114.977 8.4855C114.713 8.36682 114.435 8.30748 114.148 8.30748C113.563 8.30748 113.026 8.52506 112.529 8.96021C112.031 9.39537 111.588 9.92942 111.188 10.5723C110.788 11.2151 110.442 11.8827 110.139 12.5848C109.837 13.287 109.588 13.9002 109.398 14.4343L108.408 20.1704C108.584 20.6055 108.862 20.9368 109.237 21.1742C109.618 21.4116 110.135 21.5302 110.798 21.5302V21.5253Z" fill="#1B42EA"/>
<path d="M123.277 22C122.423 22 121.838 21.733 121.526 21.2039C121.214 20.6698 121.136 19.9825 121.292 19.1319L123.681 4.93999C123.74 4.60373 123.769 4.27242 123.769 3.93617C123.769 3.59991 123.72 3.28343 123.623 2.99168C123.525 2.69499 123.355 2.4428 123.111 2.23511C122.867 2.02742 122.54 1.9038 122.135 1.86424L122.165 1.71589C124.188 1.34008 126.022 0.771409 127.675 0H127.763L124.525 18.7759C124.427 19.2308 124.432 19.5374 124.539 19.7056C124.647 19.8737 124.827 19.9577 125.081 19.9577C125.49 19.9577 125.866 19.7896 126.217 19.4534C126.568 19.1171 126.885 18.7363 127.163 18.3012C127.446 17.866 127.675 17.4457 127.85 17.0303C128.026 16.615 128.143 16.343 128.202 16.2045L128.348 16.2342C128.172 16.6496 127.948 17.1836 127.675 17.8463C127.402 18.5089 127.056 19.1418 126.641 19.755C126.222 20.3682 125.739 20.8923 125.183 21.3374C124.627 21.7824 123.993 22.0049 123.272 22.0049L123.277 22Z" fill="#1B42EA"/>
<path d="M145.873 16.2342C145.678 16.7287 145.439 17.3023 145.161 17.9649C144.878 18.6276 144.532 19.2556 144.127 19.8588C143.723 20.4621 143.24 20.9665 142.684 21.3819C142.128 21.7973 141.504 22.0049 140.802 22.0049C139.987 22.0049 139.412 21.7478 139.08 21.2385C138.749 20.7242 138.661 20.027 138.817 19.1369L139.49 15.3837C138.598 17.4754 137.632 19.0973 136.603 20.2643C135.574 21.4264 134.472 22.0099 133.307 22.0099C132.259 22.0099 131.517 21.6637 131.093 20.9764C130.669 20.2891 130.567 19.2407 130.801 17.8413L132.171 9.86019C132.268 9.42504 132.259 9.07889 132.142 8.81187C132.025 8.54484 131.771 8.41133 131.386 8.41133C131.035 8.41133 130.708 8.5399 130.41 8.79703C130.108 9.05417 129.835 9.35087 129.596 9.68218C129.352 10.0184 129.148 10.3399 128.982 10.6415C128.816 10.9481 128.694 11.1607 128.616 11.2794L128.47 11.2497C128.665 10.8343 128.899 10.3497 129.167 9.78602C129.44 9.2223 129.781 8.69319 130.186 8.18881C130.596 7.68442 131.064 7.25916 131.6 6.90312C132.137 6.54709 132.761 6.36907 133.483 6.36907C134.297 6.36907 134.872 6.62126 135.204 7.1207C135.535 7.62508 135.623 8.32726 135.467 9.23713L134.009 17.604C133.853 18.4891 133.892 19.1369 134.126 19.5424C134.36 19.9479 134.731 20.1506 135.233 20.1506C135.565 20.1506 135.921 19.9874 136.296 19.661C136.676 19.3347 137.062 18.8995 137.462 18.3457C137.861 17.7919 138.247 17.149 138.627 16.4073C139.007 15.6655 139.358 14.8744 139.69 14.0288L140.972 6.69544H144.122L142.05 18.7611C141.953 19.2556 141.967 19.577 142.094 19.7352C142.221 19.8935 142.401 19.9726 142.635 19.9726C143.025 19.9726 143.381 19.8094 143.713 19.483C144.044 19.1567 144.342 18.7808 144.615 18.3605C144.888 17.9353 145.117 17.5199 145.298 17.1045C145.478 16.6891 145.615 16.3924 145.693 16.2194L145.868 16.249L145.873 16.2342Z" fill="#1B42EA"/>
<path d="M154.123 6.35918C155.25 6.35918 156.132 6.64105 156.761 7.19982C157.39 7.76355 157.707 8.51517 157.707 9.45966C157.707 10.4635 157.439 11.3288 156.907 12.0459C156.371 12.7678 155.693 13.3662 154.864 13.8508C154.04 14.3354 153.128 14.7112 152.138 14.9881C151.149 15.265 150.193 15.4727 149.281 15.6062C149.379 16.16 149.539 16.6793 149.764 17.1737C149.988 17.6682 150.271 18.0935 150.607 18.4594C150.949 18.8254 151.353 19.1122 151.831 19.3149C152.309 19.5226 152.846 19.6264 153.45 19.6264C154.401 19.6264 155.269 19.3198 156.044 18.7116C156.82 18.1034 157.424 17.243 157.853 16.1403L158 16.1996C157.493 17.9946 156.727 19.4089 155.698 20.4423C154.669 21.4758 153.397 21.9951 151.88 21.9951C151.105 21.9951 150.403 21.8517 149.783 21.5648C149.159 21.278 148.642 20.8824 148.223 20.3682C147.804 19.8539 147.482 19.2457 147.262 18.5336C147.038 17.8265 146.926 17.0452 146.926 16.1996C146.926 15.0178 147.096 13.8359 147.438 12.6541C147.779 11.4722 148.257 10.419 148.881 9.48933C149.505 8.56462 150.256 7.80805 151.139 7.22949C152.021 6.65094 153.021 6.35918 154.128 6.35918H154.123ZM149.14 13.9892C149.14 14.1672 149.14 14.3452 149.154 14.5233C149.164 14.7013 149.179 14.8793 149.198 15.0573C149.993 14.9386 150.739 14.7557 151.427 14.5084C152.119 14.2612 152.719 13.9299 153.236 13.5194C153.753 13.1041 154.157 12.6195 154.46 12.0557C154.762 11.492 154.913 10.8492 154.913 10.1173C154.913 9.72174 154.864 9.35087 154.767 8.99483C154.669 8.6388 154.528 8.33221 154.343 8.06519C154.157 7.79816 153.928 7.59047 153.655 7.44212C153.382 7.29378 153.07 7.2196 152.724 7.2196C152.314 7.2196 151.904 7.35806 151.485 7.63498C151.066 7.91189 150.685 8.32727 150.334 8.87615C149.983 9.42999 149.695 10.1272 149.476 10.9778C149.252 11.8233 149.14 12.8321 149.14 13.9942V13.9892Z" fill="#1B42EA"/>
<path d="M15.0773 5.34052H10.8253L5.86124 12.0607L3.35973 15.626V5.68667H0V21.5648H3.35973V21.555L3.37436 21.5599L6.44152 16.9265L10.8155 21.3918H15.6137L8.48954 14.1672L15.0773 5.34052Z" fill="#1B42EA"/>
<path d="M41.5257 5.55811H38.166V21.5648H41.5257V5.55811Z" fill="#1B42EA"/>
<path d="M29.7935 6.67071C28.4184 5.54327 26.6142 4.90537 24.532 4.90537C19.7533 4.90537 16.4229 8.31243 16.4229 13.2524C16.4229 18.1924 19.7533 21.5698 24.532 21.5698C26.6142 21.5698 28.4184 20.9368 29.7935 19.8143V21.2583H33.1532V5.24657H29.7935V6.67071ZM24.532 18.6276C21.7282 18.6276 19.8752 16.5012 19.8752 13.2178C19.8752 9.93437 21.7233 7.80805 24.532 7.80805C27.3408 7.80805 29.2181 9.9047 29.2181 13.2178C29.2181 16.5309 27.37 18.6276 24.532 18.6276Z" fill="#1B42EA"/>
<path d="M65.7508 4.90537C60.9721 4.90537 57.6416 8.31243 57.6416 13.2524C57.6416 18.1924 60.9721 21.5698 65.7508 21.5698C70.5295 21.5698 73.8892 18.1924 73.8892 13.2524C73.8892 8.31243 70.5588 4.90537 65.7508 4.90537ZM65.7508 18.6276C62.947 18.6276 61.094 16.5012 61.094 13.2178C61.094 9.93437 62.9421 7.80805 65.7508 7.80805C68.5595 7.80805 70.4369 9.9047 70.4369 13.2178C70.4369 16.5309 68.5888 18.6276 65.7508 18.6276Z" fill="#1B42EA"/>
<path d="M50.2298 6.61632V5.5581H46.8701V21.5648H50.2298V12.9409C50.459 10.0234 52.1755 8.20858 54.6867 8.20858C55.1353 8.20858 55.5645 8.26298 55.9594 8.37671V5.38997C55.5498 5.33063 55.1256 5.30096 54.6867 5.30096C52.9752 5.30096 51.4587 5.77073 50.2298 6.61632Z" fill="#1B42EA"/>
<path d="M85.7881 12.125L82.6721 11.5613C80.9167 11.2497 80.1121 10.7157 80.1121 9.55856C80.1121 8.2432 81.2824 7.4619 83.1354 7.4619C85.0761 7.4619 86.4659 8.36683 86.4951 9.99371H89.8256C89.7963 6.80423 86.9876 4.9301 83.1354 4.9301C79.5611 4.9301 76.7524 6.80423 76.7524 9.68218C76.7524 11.9618 77.9568 13.5887 81.0386 14.1227L84.213 14.6864C86.0026 14.9683 86.617 15.626 86.617 16.8424C86.617 18.2468 85.3833 19.033 83.3207 19.033C81.258 19.033 79.7464 18.0638 79.7123 16.4073H76.3525C76.4159 19.5325 79.2198 21.5648 83.3792 21.5648C87.0461 21.5648 90.0694 19.844 90.0694 16.5309C90.0694 14.1227 88.7138 12.6541 85.7832 12.125H85.7881Z" fill="#1B42EA"/>
<path d="M98.1299 14.7952C98.9378 14.7952 99.5927 14.1311 99.5927 13.3118C99.5927 12.4925 98.9378 11.8283 98.1299 11.8283C97.3219 11.8283 96.667 12.4925 96.667 13.3118C96.667 14.1311 97.3219 14.7952 98.1299 14.7952Z" fill="#1B42EA"/>
</g>
<defs>
<clipPath id="clip0_33_2017">
<rect width="158" height="22" fill="white"/>
</clipPath>
</defs>
</svg>
